packages/tokens/icons/recommender2/size16Px.svg

<svg viewBox="0 0 16 16" fill="none" xmlns="http://www.w3.org/2000/svg" width="1em" height="1em"><path d="M6.5 10L7.29289 9.20711C7.68342 8.81658 8.31658 8.81658 8.70711 9.20711L9.5 10" stroke="currentColor" stroke-linecap="round"/><path d="M6.5 6.5L7.29289 5.70711C7.68342 5.31658 8.31658 5.31658 8.70711 5.70711L9.5 6.5" stroke="currentColor" stroke-linecap="round"/><path d="M1.61774 9.1925C1.03196 8.60671 1.03196 7.65696 1.61774 7.07118L6.92104 1.76788C7.50683 1.18209 8.45658 1.18209 9.04236 1.76788L14.3457 7.07118C14.9315 7.65696 14.9315 8.60671 14.3457 9.1925L9.04236 14.4958C8.45658 15.0816 7.50683 15.0816 6.92104 14.4958L1.61774 9.1925Z" stroke="currentColor"/></svg>

<svg xmlns="http://www.w3.org/2000/svg" fill="none" viewBox="0 0 16 16" width="1em" height="1em"><path stroke="currentColor" stroke-linecap="round" d="m6.5 10 .793-.793a1 1 0 0 1 1.414 0L9.5 10m-3-3.5.793-.793a1 1 0 0 1 1.414 0L9.5 6.5"/><path stroke="currentColor" d="M1.618 9.193a1.5 1.5 0 0 1 0-2.122L6.92 1.768a1.5 1.5 0 0 1 2.121 0l5.304 5.303a1.5 1.5 0 0 1 0 2.122l-5.304 5.303a1.5 1.5 0 0 1-2.121 0L1.618 9.193Z"/></svg>
